X:31
T:Come, Thou Long-Expected Jesus
%%stretchlast false
M:2/4
L:1/4
K:Ab clef=C1
"^vi"[CFf] [CFf]/ "^V"[EGe]/ | "^vi"[FAc] "^vi7"[Fe]/ "^vi"[Ff]/ | "^I²"[Eca] "^iii"[Cg]/ "^vi+"[Dfg]/ | "^V"[Eeg]/ "^♯iii°"[Edg]/ "^vi"[Ccf] | "^♯vii"[A,Af]/ "^v"[B,Ae]/ "^iii"[CGc]/ "^V"[EGB]/ | "^vi"[Fc] "^V²"[B,Ge]/ "^ii"[B,Ff]/ | "^iii+"[CAa] "^iii"[CGg] | "^vi"[F,Ff]2 | [CFf] [CFf]/ "^V"[EGe]/ | "^vi"[FAc] "^vi7"[Fe]/ "^vi"[Ff]/ | "^I²"[Eca] "^iii"[Cg]/ "^vi+"[Dfg]/ | "^V"[Eeg]/ "^♯iii°"[Edg]/ "^vi"[Ccf] | "^♯vii"[A,Af]/ "^v"[B,Ae]/ "^iii"[CGc]/ "^V"[EGB]/ | "^vi"[Fc] "^V²"[B,Ge]/ "^ii"[B,Ff]/ | "^iii+"[CAa] "^iii"[CGg] | "^vi"[F,Ff]2 | "^iii+"[CAa] "^V"[EGb] | "^vi"[Fc'] [Fc'] | "^v"[EAa]/ [EBa]/ "^vi"[Fcg]/ "^ii"[FBf]/ | "^iii"[Ccg] "^vi"[Ccf] | "^iii+"[A,ca] "^ii"[B,Bb] | "^iii+"[CAc'] "^vi"[Fc']/ "^ii"[Fb]/ | "^v"[EAa] "^vii¹"[B,Bg]/ "^♯vii"[B,Af]/ | "^iii"[CGg]2 | "^vi"[Fcf] "^I²"[Eca]/ "^ii"[FBb]/ | "^iii"[Gc'] "^vi"[FAc']/ [FGc']/ | "^♯vii"[FAa] "^iii"[CGg]/ "^vi²"[CAf]/ | "^vii¹"[B,Bg] "^vi"[Ccf] | "^♯vii"[FAf]/ "^v"[FAe]/ "^iii"[Gc]/ "^vii"[GB]/ | "^vi"[Fc] "^V²"[B,Ge]/ "^ii"[B,Ff]/ | "^I¹"[CEa] "^iii"[CGg] | "^vi"[F,Ff]2 |]
